svg/battery-bolt.svg

<svg width="32" height="32" viewBox="0 0 32 32" fill="none" xmlns="http://www.w3.org/2000/svg">
<path fill-rule="evenodd" clip-rule="evenodd" d="M14 8.02362C14.623 8.00745 15.2887 8 16 8C26.0833 8 27 9.5 27 16C27 22.5 26.0833 24 16 24C15.2887 24 14.623 23.9926 14 23.9764C5.7919 23.7635 5 22.0414 5 16C5 9.95856 5.7919 8.23651 14 8.02362ZM7 16C6.99951 17.5814 7.03903 18.6678 7.24951 19.5423C7.41556 20.341 7.50861 20.5612 7.96548 20.8737C8.3237 21.1592 8.99329 21.4717 10.3453 21.6895C11.7291 21.9155 13.5027 21.9995 15.9492 22H16C18.4727 22.0005 20.2614 21.9171 21.6547 21.6895C23.0067 21.4717 23.6763 21.1592 24.0345 20.8737C24.4914 20.5612 24.5844 20.341 24.7505 19.5423C24.961 18.6678 25.0005 17.5814 25 16C25.0005 14.4186 24.961 13.3322 24.7505 12.4577C24.5844 11.659 24.4914 11.4388 24.0345 11.1263C23.6763 10.8408 23.0067 10.5283 21.6547 10.3105C20.2614 10.0829 18.4727 9.99945 16 10H15.9492C13.5027 10.0005 11.7291 10.0845 10.3453 10.3105C8.99329 10.5283 8.3237 10.8408 7.96548 11.1263C7.50861 11.4388 7.41556 11.659 7.24951 12.4577C7.03903 13.3322 6.99951 14.4186 7 16Z" fill="black"/>
<path d="M30 16C30 17.1046 29.1046 18 28 18V14C29.1046 14 30 14.8954 30 16Z" fill="black"/>
<path fill-rule="evenodd" clip-rule="evenodd" d="M16.7508 7.53197C17.1919 7.64627 17.5 8.04432 17.5 8.5L17.5 13.5H20.5C20.8543 13.5 21.1822 13.6875 21.3619 13.9929C21.5416 14.2983 21.5462 14.6759 21.3742 14.9856L16.3742 23.9856C16.1529 24.384 15.6903 24.5823 15.2492 24.468C14.8081 24.3537 14.5 23.9557 14.5 23.5V18.5H11.5C11.1457 18.5 10.8178 18.3125 10.6381 18.0071C10.4584 17.7018 10.4538 17.3241 10.6258 17.0144L15.6258 8.01436C15.8471 7.61603 16.3097 7.41767 16.7508 7.53197ZM13.1995 16.5H15.5C16.0523 16.5 16.5 16.9477 16.5 17.5V19.6409L18.8005 15.5H16.5C15.9477 15.5 15.5 15.0523 15.5 14.5L15.5 12.3591L13.1995 16.5Z" fill="black"/>
<path d="M9.75169 16.5287L10.6258 17.0144L9.75169 16.5287C9.40754 17.1482 9.41689 17.9035 9.77626 18.5143C10.1356 19.125 10.7914 19.5 11.5 19.5H13.5V23.5C13.5 24.4114 14.1161 25.2075 14.9983 25.4361C15.8805 25.6647 16.8057 25.268 17.2483 24.4713L22.2483 15.4713C22.5925 14.8518 22.5831 14.0965 22.2237 13.4857C21.8644 12.875 21.2086 12.5 20.5 12.5H18.5L18.5 8.49999C18.5 7.58864 17.8839 6.79255 17.0017 6.56394C16.1195 6.33534 15.1943 6.73205 14.7517 7.52872L15.6258 8.01436L14.7517 7.52872L9.75169 16.5287Z" stroke="#E5E5E5" stroke-width="2" stroke-linecap="round" stroke-linejoin="round"/>
</svg>

<svg width="32" height="32" fill="none" xmlns="http://www.w3.org/2000/svg"><path d="M30 16a2 2 0 0 1-2 2v-4a2 2 0 0 1 2 2z" fill="#000"/><path fill-rule="evenodd" clip-rule="evenodd" d="M16.75 7.532a1 1 0 0 1 .75.968v5h3a1 1 0 0 1 .874 1.486l-5 9A1 1 0 0 1 14.5 23.5v-5h-3a1 1 0 0 1-.874-1.486l5-9a1 1 0 0 1 1.125-.482zM13.2 16.5h2.3a1 1 0 0 1 1 1v2.14l2.3-4.14h-2.3a1 1 0 0 1-1-1v-2.14l-2.3 4.14z" fill="#000"/><path d="M19.824 21.894a20.35 20.35 0 0 0 1.83-.204c1.353-.218 2.022-.53 2.38-.816.457-.313.55-.533.716-1.332.211-.874.25-1.96.25-3.542 0-1.581-.039-2.668-.25-3.542-.166-.799-.259-1.02-.715-1.332-.359-.285-1.028-.598-2.38-.816a21.522 21.522 0 0 0-2.155-.225V8.5c0-.141-.01-.28-.029-.417C26.305 8.472 27 10.34 27 16c0 5.87-.748 7.663-8.32 7.955l1.144-2.061zM12.529 23.917C5.695 23.528 5 21.66 5 16c0-5.87.748-7.663 8.32-7.955l-1.144 2.061c-.682.049-1.287.116-1.83.204-1.353.218-2.022.53-2.38.816-.457.313-.55.533-.716 1.332C7.039 13.332 7 14.418 7 16c0 1.581.039 2.668.25 3.542.166.799.259 1.02.715 1.332.359.285 1.028.598 2.38.816.63.102 1.338.176 2.155.225V23.5c0 .141.01.28.029.417zM15.626 8.014l.008-.013-.008.013zM16.374 23.986l-.008.013.008-.013z" fill="#000"/></svg>
